img/soon/rocket.svg

<svg width="69" height="54" viewBox="0 0 69 54" fill="none" xmlns="http://www.w3.org/2000/svg">
    <g clip-path="url(#clip0_509_1303)">
        <path
            d="M48.1553 21.639L46.2262 20.7618L44.5573 19.8326L27.8645 10.2132C27.7852 9.9827 27.7505 9.83278 27.7604 9.76339C28.2982 6.43301 28.8396 3.21538 29.3847 0.110494C29.3877 0.0895239 29.3958 0.0696499 29.4085 0.0526207C29.4211 0.0355916 29.4379 0.0219143 29.4573 0.0127607C29.4767 0.00360701 29.4982 -0.000735289 29.5198 0.000101623C29.5415 0.000938534 29.5628 0.00693609 29.5817 0.0175702C33.3929 2.16101 36.9933 4.20036 40.3832 6.13565C41.0622 6.52221 41.6569 7.26933 42.1673 8.37698C43.8672 12.0642 45.3961 15.2409 46.754 17.9072C47.3587 19.0892 47.8258 20.3332 48.1553 21.639Z"
            fill="#FCB958" />
        <path
            d="M27.8644 10.213L44.5572 19.8325C44.914 20.4371 45.4703 20.7469 46.2261 20.7617L48.1552 21.6389C50.2689 22.8977 52.4743 24.1516 54.7713 25.4005C58.0497 27.1797 60.8448 29.3962 63.1568 32.0501C64.1232 33.1627 65.009 34.4822 65.8144 36.0086C65.5269 36.5488 65.2234 37.0482 64.9037 37.5066C63.7886 39.1123 63.0453 40.8667 62.0119 42.5245C61.2909 43.6817 60.6057 44.8599 59.9565 46.0593C59.565 46.7779 58.8823 47.9561 57.9084 49.5941C57.1551 50.8628 56.4625 52.2133 55.8307 53.6455C55.0823 53.6679 54.3352 53.6666 53.5893 53.6418C50.4448 53.5402 47.4713 52.7845 44.6687 51.3745C42.4534 50.2594 39.5802 48.6425 36.0491 46.5239C35.6055 46.2563 35.0492 46.0109 34.3802 45.7879L13.7883 33.8714L11.3648 32.3437C11.2459 32.2694 11.2025 32.1653 11.2347 32.0315C11.3636 31.521 11.5854 31.044 11.9001 30.6005C11.9816 30.4864 12.0372 30.3558 12.063 30.2179C12.0888 30.08 12.0842 29.9381 12.0495 29.8019C12.0149 29.6658 11.951 29.5387 11.8623 29.4295C11.7736 29.3202 11.6622 29.2315 11.5358 29.1695C10.8569 28.8374 10.1692 28.4285 9.47291 27.9429C9.35767 27.8619 9.27925 27.7386 9.25486 27.6C9.23047 27.4613 9.26211 27.3186 9.34282 27.2032C9.82602 26.5168 9.92266 26.1054 9.63274 25.9692C10.6537 24.5964 11.4875 23.1468 12.1342 21.6203C13.7053 19.6504 15.0074 17.4759 16.0408 15.0971C16.3381 14.7502 16.5289 14.4058 16.6132 14.0638L18.5906 10.6516L19.5756 9.36185C19.6895 9.21421 19.8524 9.11233 20.0346 9.07479C20.2168 9.03726 20.4061 9.06659 20.568 9.15742L22.6495 10.3283C22.7921 10.4084 22.9596 10.4318 23.1188 10.3939C23.2779 10.3561 23.4169 10.2596 23.5081 10.1238L24.2255 9.05336C24.3332 8.8933 24.4862 8.76934 24.6646 8.69772C24.843 8.6261 25.0384 8.61015 25.2253 8.65192C25.9353 8.80803 27.0727 9.33212 27.515 10.0012C27.6884 10.2638 27.8049 10.3345 27.8644 10.213ZM46.1023 35.5042C46.997 33.5134 47.0532 31.2438 46.2584 29.1947C45.4637 27.1455 43.8831 25.4846 41.8645 24.5774C39.8459 23.6702 37.5545 23.591 35.4945 24.3572C33.4345 25.1234 31.7746 26.6722 30.8799 28.6629C29.9852 30.6537 29.9291 32.9233 30.7238 34.9724C31.5186 37.0216 33.0991 38.6825 35.1177 39.5897C37.1363 40.4969 39.4277 40.5761 41.4877 39.8099C43.5477 39.0438 45.2077 37.4949 46.1023 35.5042Z"
            fill="#3C1D88" />
        <path
            d="M13.7883 33.8713L34.3802 45.7879C29.0427 46.4148 23.891 46.9364 18.9252 47.3527C18.5535 47.3824 17.8547 47.1706 17.4756 46.9587C13.8156 44.8921 10.1618 42.7945 6.51429 40.6659C6.31357 40.5495 6.29994 40.4144 6.4734 40.2608L13.7883 33.8713Z"
            fill="#FCB958" />
        <path
            d="M65.8145 36.0085C66.8404 37.6836 67.6247 39.5595 68.1674 41.636C68.4474 42.7015 68.575 43.6902 68.5502 44.6021C68.4412 48.49 66.5517 51.087 62.8819 52.3929C60.4039 53.275 58.0535 53.6925 55.8308 53.6455C56.4627 52.2132 57.1553 50.8627 57.9086 49.594C58.8824 47.956 59.5651 46.7778 59.9566 46.0592C60.6058 44.8598 61.291 43.6816 62.0121 42.5244C63.0454 40.8666 63.7888 39.1122 64.9039 37.5065C65.2235 37.0481 65.5271 36.5487 65.8145 36.0085Z"
            fill="#FCB958" />
        <path
            d="M46.1025 35.5041C45.2079 37.4949 43.5479 39.0437 41.4879 39.8099C39.4279 40.5761 37.1365 40.4968 35.1179 39.5896C33.0993 38.6824 31.5188 37.0215 30.724 34.9724C29.9293 32.9232 29.9854 30.6536 30.8801 28.6629C31.7748 26.6721 33.4347 25.1233 35.4947 24.3571C37.5547 23.591 39.8461 23.6702 41.8647 24.5774C43.8833 25.4846 45.4639 27.1455 46.2586 29.1946C47.0534 31.2438 46.9972 33.5134 46.1025 35.5041ZM43.985 32.0538C43.985 30.5928 43.4046 29.1917 42.3715 28.1586C41.3385 27.1256 39.9374 26.5453 38.4764 26.5453C37.0155 26.5453 35.6144 27.1256 34.5813 28.1586C33.5483 29.1917 32.9679 30.5928 32.9679 32.0538C32.9679 33.5147 33.5483 34.9158 34.5813 35.9489C35.6144 36.9819 37.0155 37.5623 38.4764 37.5623C39.9374 37.5623 41.3385 36.9819 42.3715 35.9489C43.4046 34.9158 43.985 33.5147 43.985 32.0538Z"
            fill="#56D6A9" />
        <path
            d="M38.4763 37.5623C41.5186 37.5623 43.9848 35.0961 43.9848 32.0538C43.9848 29.0115 41.5186 26.5453 38.4763 26.5453C35.434 26.5453 32.9678 29.0115 32.9678 32.0538C32.9678 35.0961 35.434 37.5623 38.4763 37.5623Z"
            fill="#CFFFEB" />
        <path
            d="M18.5907 10.6516L16.6133 14.0638L16.1152 14.5247L11.7998 13.3427C10.489 13.1097 9.23887 13.1296 8.04944 13.4021C7.46464 13.4195 6.9517 13.5917 6.51063 13.9188C6.40903 13.9931 6.37929 14.0898 6.42142 14.2087C7.46464 17.1055 9.36896 19.576 12.1344 21.6203C11.4876 23.1467 10.6538 24.5963 9.63286 25.9691C5.83166 23.4813 3.16538 20.1249 1.63399 15.8999C0.987245 14.1121 0.671304 12.1049 0.00968778 10.2948C-0.00489041 10.2538 -0.00295504 10.2088 0.0150839 10.1693C0.0331229 10.1297 0.0658485 10.0987 0.106328 10.0829C2.57438 9.12641 5.16261 8.49703 7.87103 8.19471C10.681 7.88249 13.6211 8.27648 16.6913 9.3767C17.7247 9.74839 18.3578 10.1734 18.5907 10.6516Z"
            fill="#56D6A9" />
        <path
            d="M11.7998 13.3427L16.1151 14.5246C15.8401 14.7427 15.8153 14.9335 16.0408 15.097C15.0075 17.4759 13.7053 19.6503 12.1343 21.6203C9.36889 19.576 7.46458 17.1054 6.42135 14.2087C6.37923 14.0898 6.40896 13.9931 6.51056 13.9188C6.95164 13.5917 7.46458 13.4195 8.04937 13.4021L11.7998 13.3427Z"
            fill="#16084E" />
    </g>
    <defs>
        <clipPath id="clip0_509_1303">
            <rect width="69" height="54" fill="white" />
        </clipPath>
    </defs>
</svg>

<svg width="69" height="54" viewBox="0 0 69 54" fill="none" xmlns="http://www.w3.org/2000/svg"><g clip-path="url(#clip0_509_1303)"><path d="M48.155 21.639l-1.929-.877-1.669-.93-16.693-9.619c-.079-.23-.114-.38-.104-.45A721.55 721.55 0 0129.385.11a.127.127 0 01.072-.097.134.134 0 01.125.005 1908.87 1908.87 0 0110.801 6.118c.68.386 1.274 1.133 1.784 2.241 1.7 3.687 3.23 6.864 4.587 9.53a17.644 17.644 0 011.401 3.732z" fill="#FCB958"/><path d="M27.864 10.213l16.693 9.62c.357.604.913.914 1.67.929l1.928.877a194.6 194.6 0 006.616 3.762c3.279 1.779 6.074 3.995 8.386 6.65.966 1.112 1.852 2.431 2.657 3.958a14.64 14.64 0 01-.91 1.498c-1.115 1.605-1.859 3.36-2.892 5.018a66.935 66.935 0 00-2.056 3.534c-.391.719-1.074 1.897-2.048 3.535a37.844 37.844 0 00-2.077 4.051c-.749.023-1.496.022-2.242-.003a21.136 21.136 0 01-8.92-2.268c-2.216-1.115-5.089-2.732-8.62-4.85-.444-.268-1-.513-1.669-.736L13.788 33.87l-2.423-1.527c-.12-.075-.162-.179-.13-.313.129-.51.35-.987.665-1.43a.963.963 0 00-.038-1.171.971.971 0 00-.326-.26 15.613 15.613 0 01-2.063-1.227.532.532 0 01-.13-.74c.483-.686.58-1.098.29-1.234a20.994 20.994 0 002.501-4.349 28.828 28.828 0 003.907-6.523c.297-.347.488-.691.572-1.033l1.978-3.412.985-1.29a.778.778 0 01.992-.205l2.081 1.171a.65.65 0 00.86-.204l.716-1.07a.961.961 0 011-.402c.71.156 1.848.68 2.29 1.35.173.262.29.332.35.211zm18.238 25.291a8.17 8.17 0 00.156-6.31 8.404 8.404 0 00-4.394-4.617 8.404 8.404 0 00-6.37-.22 8.172 8.172 0 00-4.614 4.306 8.172 8.172 0 00-.156 6.31 8.404 8.404 0 004.394 4.617 8.404 8.404 0 006.37.22 8.172 8.172 0 004.614-4.306z" fill="#3C1D88"/><path d="M13.788 33.871L34.38 45.788a467.278 467.278 0 01-15.455 1.565c-.372.03-1.07-.182-1.45-.394a887.689 887.689 0 01-10.96-6.293c-.201-.116-.215-.252-.042-.405l7.315-6.39zm52.026 2.137c1.026 1.676 1.81 3.551 2.353 5.628.28 1.066.408 2.054.383 2.966-.109 3.888-1.998 6.485-5.668 7.79-2.478.883-4.828 1.3-7.051 1.253a37.855 37.855 0 012.078-4.051c.973-1.638 1.656-2.816 2.048-3.535a66.876 66.876 0 012.055-3.535c1.033-1.657 1.777-3.412 2.892-5.017.32-.459.623-.958.91-1.498z" fill="#FCB958"/><path d="M46.102 35.504a8.172 8.172 0 01-4.614 4.306 8.404 8.404 0 01-6.37-.22 8.405 8.405 0 01-4.394-4.618 8.172 8.172 0 01.156-6.31 8.172 8.172 0 014.615-4.305 8.405 8.405 0 016.37.22 8.404 8.404 0 014.394 4.618 8.172 8.172 0 01-.157 6.31zm-2.117-3.45a5.509 5.509 0 10-11.017 0 5.509 5.509 0 0011.017 0z" fill="#56D6A9"/><path d="M38.476 37.562a5.508 5.508 0 100-11.017 5.508 5.508 0 000 11.017z" fill="#CFFFEB"/><path d="M18.59 10.652l-1.977 3.412-.498.46-4.315-1.181c-1.311-.233-2.561-.213-3.75.06a2.651 2.651 0 00-1.54.516c-.101.074-.13.17-.089.29 1.044 2.896 2.948 5.367 5.713 7.411a21.002 21.002 0 01-2.501 4.35c-3.801-2.49-6.468-5.846-7.999-10.07C.987 14.112.671 12.105.01 10.295a.167.167 0 01.096-.212 30.868 30.868 0 017.765-1.888c2.81-.313 5.75.081 8.82 1.182 1.034.371 1.667.796 1.9 1.275z" fill="#56D6A9"/><path d="M11.8 13.343l4.315 1.182c-.275.218-.3.409-.074.572a28.828 28.828 0 01-3.907 6.523c-2.765-2.044-4.67-4.515-5.713-7.411-.042-.12-.012-.216.09-.29.44-.327.954-.5 1.538-.517l3.75-.06z" fill="#16084E"/></g><defs><clipPath id="clip0_509_1303"><path fill="#fff" d="M0 0h69v54H0z"/></clipPath></defs></svg>
